X: 37
T: Missa Et trop penser &mdash; Credo
C: Gaspar van Weerbeke
%%abc-version 2.0
%%abcx-abcm2ps-target-version 5.9.1 (29 Sep 2008)
%%abc-creator hum2abc beta
%%abcx-conversion-date 2022/03/06 13:05:56
%%abc-copyright Copyright 2016, Kolb, Paul
%%abc-edited-by Zybina, Karina
%%humdrum-veritas 2218843827
%%humdrum-veritas-data 1889354429
%%linebreak <none>
%%barnumbers 0
L: 1/4
M: 3/2
N: Derived from Gas0202c-Missa_Et_trop_penser-Credo.krn
%%staves [1 2 3 4]
V: 1 clef=treble
V: 2 clef=treble-8
V: 3 clef=treble-8
V: 4 clef=bass
K: F
[V:1] G3B2A/G/ | 
[V:2] G4G2 | 
[V:3] z6 | 
[V:4] z6 | 
[V:1] FBAGA2 | 
[V:2] d2def2 | 
[V:3] z6 | 
[V:4] z6 | 
[V:1] GB>AG2F | 
[V:2] eg>fe2d- | 
[V:3] z6 | 
[V:4] z6 | 
[V:1] E2DB,>F,B,- | 
[V:2] d^cd4 | 
[V:3] z6 | 
[V:4] z6 | 
[V:1] B,A,B,>C D/_E/F- | 
[V:2] c2zB2A/G/ | 
[V:3] z6 | 
[V:4] z6 | 
[V:1] F/_E<DB,/CB,/C/D/E/ | 
[V:2] FB2AB3/c/ | 
[V:3] z6 | 
[V:4] z6 | 
[V:1] F/G/A/B/ c/d/B2A | 
[V:2] d/_e<f_e<dB/c | 
[V:3] z6 | 
[V:4] z6 | 
[V:1] B6 | 
[V:2] B4G2 | 
[V:3] z6 | 
[V:4] z6 | 
[V:1] z2A>AAA | 
[V:2] F>FFFF2 | 
[V:3] z6 | 
[V:4] z6 | 
[V:1] A2D>EFG- | 
[V:2] zFG/A/B/c/AG | 
[V:3] z6 | 
[V:4] z6 | 
[V:1] G/F/D/B,<BA/FB- | 
[V:2] B>A B/c/d2G | 
[V:3] z6 | 
[V:4] z6 | 
[V:1] BA>GG2^F | 
[V:2] GF>GBA2 | 
[V:3] z6 | 
[V:4] z6 | 
[V:1] G4z2 | 
[V:2] G3B2A/G/ | 
[V:3] z6 | 
[V:4] z6 | 
[V:1] A2ABc3/A/ | 
[V:2] F2fdef | 
[V:3] z6 | 
[V:4] z6 | 
[V:1] B>BBAd3/c/ | 
[V:2] g>fd2df- | 
[V:3] z6 | 
[V:4] z6 | 
[V:1] AB>Ac>BA/G/ | 
[V:2] fg>f_e/d/c2 | 
[V:3] z6 | 
[V:4] z6 | 
[V:1] F2zF2F | 
[V:2] d4zf | 
[V:3] z6 | 
[V:4] D,2D,D,F,D, | 
[V:1] DF/_E/ D/C/B,FD | 
[V:2] fdf/_e/d/c/Bf | 
[V:3] z6 | 
[V:4] B,,2B,,3B,, | 
[V:1] FDB,2D_E | 
[V:2] dfdB>AG | 
[V:3] z6 | 
[V:4] B,,B,,2<B,,2C, | 
[V:1] FG2AB3/G/ | 
[V:2] FB2cd3/B/ | 
[V:3] z6 | 
[V:4] D,_E,>D,C,B,,2 | 
[V:1] AFDG2F | 
[V:2] cd2GA2 | 
[V:3] z6 | 
[V:4] F,D,G,_E,D,2 | 
[V:1] _ED2B,A,2 | 
[V:2] GB>AG2^F | 
[V:3] z6 | 
[V:4] zB,,>G,,B,,C,D, | 
[V:1] G,2z2G2 | 
[V:2] G4_E2 | 
[V:3] G6- | 
[V:4] G,,4C,2 | 
[V:1] GB2GG2 | 
[V:2] D2DD_E2 | 
[V:3] G6 | 
[V:4] B,,G,,2G,,C,2 | 
[V:1] D2D3D | 
[V:2] F2f3f | 
[V:3] B6 | 
[V:4] B,,4B,,B,, | 
[V:1] G2>G2G2 | 
[V:2] B2>B2B3/c/ | 
[V:3] G6 | 
[V:4] _E,2>E,2E,2 | 
[V:1] F2>F2G3/_E/ | 
[V:2] d>cA2G3/A/ | 
[V:3] A4B2 | 
[V:4] D,2D,F,_E,3/D,/ | 
[V:1] F3B2A- | 
[V:2] B3A/G/Ff | 
[V:3] d4d2 | 
[V:4] B,,2B,,2D,F,- | 
[V:1] AG>FF2E | 
[V:2] c_e2c2c | 
[V:3] c2BAG2 | 
[V:4] F,_E,2F,C,2 | 
[V:1] F2z2GB- | 
[V:2] A2zcB2 | 
[V:3] F4z2 | 
[V:4] zC2A,G,2 | 
[V:1] BG2FGB | 
[V:2] _e2d2zG | 
[V:3] zGB2G2 | 
[V:4] _E,2B,,2E,2 | 
[V:1] AG/F/_E2D2 | 
[V:2] c2>c2df- | 
[V:3] A4B2- | 
[V:4] F,2C,2B,,2- | 
[V:1] zd>cB2A- | 
[V:2] f/d/gfd_ef- | 
[V:3] B2d4 | 
[V:4] B,,2B,>A,G,D, | 
[V:1] A/G/F/E/DG2^F | 
[V:2] f/F/ABcd2 | 
[V:3] c2BGA2 | 
[V:4] F,2B,,_E,D,2 | 
[V:1] G2DF>_ED/C/ | 
[V:2] zGB>AFB- | 
[V:3] G2z2z2 | 
[V:4] G,,B,,>C,D,2G,,- | 
[V:1] B,C>B,A,/G,/A,2 | 
[V:2] BA>G^F/E/^F2 | 
[V:3] z6 | 
[V:4] G,,F,,2G,,D,2 | 
[V:1] G,2z2F2 | 
[V:2] G2AABA | 
[V:3] d6 | 
[V:4] z2D,3D, | 
[V:1] FF2F2G- | 
[V:2] d>cAd2G- | 
[V:3] A4B2- | 
[V:4] D,2D,2B,,_E,- | 
[V:1] GGA>BcA- | 
[V:2] GBA/B/c/d/_ec | 
[V:3] B2c4 | 
[V:4] E,G,F,2C,F,- | 
[V:1] AB2A>GF/E/ | 
[V:2] ff>_ed/c//B//A2 | 
[V:3] d4c2 | 
[V:4] F,B,,>C,D,/E,/F,2 | 
[V:1] D>EFG2^F | 
[V:2] B/>A/d2cd2 | 
[V:3] B2AGA2 | 
[V:4] G,2D,_E,D,2 | 
[V:1] G2GGGG | 
[V:2] B>GGB2c | 
[V:3] G6 | 
[V:4] _E,2E,E,2E, | 
[V:1] F>_ECDE2 | 
[V:2] d>cAB2A | 
[V:3] z6 | 
[V:4] D,F,2D,C,2 | 
[V:1] DF2F2F | 
[V:2] B2B4 | 
[V:3] d6- | 
[V:4] B,,2B,,B,,2B,, | 
[V:1] F2GBAd- | 
[V:2] A2B>cdf | 
[V:3] d6 | 
[V:4] D,2G,2F,D, | 
[V:1] d^cd2AA | 
[V:2] e2d2f2 | 
[V:3] A2B2c2 | 
[V:4] z2D,G,F,2 | 
[V:1] BA>FB2A | 
[V:2] f2ff2f | 
[V:3] d4c2 | 
[V:4] B,,D,2B,,F,2 | 
[V:1] BF2DC2 | 
[V:2] d2>B2F2 | 
[V:3] B4A2 | 
[V:4] B,,4z2 | 
[V:1] z2z2c2 | 
[V:2] fd2c/B/A2 | 
[V:3] B>AFGA2 | 
[V:4] B,,>C,D,_E,F,2 | 
[V:1] Bd>cB/A<GF/ | 
[V:2] zB>cd_e3/d/ | 
[V:3] G4z2 | 
[V:4] G,2G,,2C,D, | 
[V:1] _EDCB,A,2 | 
[V:2] cBA/G/G2^F | 
[V:3] z6 | 
[V:4] _E,/>F,/G,A,/F,/G,D,2 | 
[V:1] G,4 ||  
[V:2] G4 ||  
[V:3] G4 ||  
[V:4] G,,4 ||  
[V:1] [M:2/2]z4 | 
[V:2] [M:2/2]A4 | 
[V:3] [M:2/2]z4 | 
[V:4] [M:2/2]z4 | 
[V:1] z4 | 
[V:2] AGA2 | 
[V:3] z4 | 
[V:4] z4 | 
[V:1] z4 | 
[V:2] B2A3/B/ | 
[V:3] z4 | 
[V:4] D,4 | 
[V:1] z4 | 
[V:2] c/d<_ed/d- | 
[V:3] z4 | 
[V:4] D,C,D,2 | 
[V:1] z4 | 
[V:2] dcB2 | 
[V:3] z4 | 
[V:4] _E,2D,3/E,/ | 
[V:1] z4 | 
[V:2] A>GFE- | 
[V:3] z4 | 
[V:4] F,/G,<A,G,/G,- | 
[V:1] z4 | 
[V:2] E/D/d2^c | 
[V:3] z4 | 
[V:4] G,F,E,2 | 
[V:1] F4 | 
[V:2] d2d2- | 
[V:3] z4 | 
[V:4] D,2B,,2- | 
[V:1] FEF2 | 
[V:2] dcA2 | 
[V:3] z4 | 
[V:4] B,,C,D,2 | 
[V:1] G2F3/G/ | 
[V:2] G2A3/B/ | 
[V:3] z4 | 
[V:4] _E,2D,2 | 
[V:1] A/F/B2A- | 
[V:2] cd2c- | 
[V:3] z4 | 
[V:4] C,B,,2F,- | 
[V:1] AG2^F | 
[V:2] cBA2 | 
[V:3] z4 | 
[V:4] F,G,D,2 | 
[V:1] G2A2- | 
[V:2] G2c2 | 
[V:3] z4 | 
[V:4] z2F,2- | 
[V:1] A2A2 | 
[V:2] cf>_ed/c/ | 
[V:3] z4 | 
[V:4] F,2F,2 | 
[V:1] B>AFA- | 
[V:2] Bd>_ef | 
[V:3] z4 | 
[V:4] G,2D,2 | 
[V:1] AG2_E | 
[V:2] _ed2c | 
[V:3] z4 | 
[V:4] _E,2E,2 | 
[V:1] F4 | 
[V:2] d4 | 
[V:3] z4 | 
[V:4] D,4- | 
[V:1] z2F2 | 
[V:2] d4 | 
[V:3] z4 | 
[V:4] D,4 | 
[V:1] G2B2 | 
[V:2] d3e | 
[V:3] z4 | 
[V:4] G,4 | 
[V:1] A3G/F/ | 
[V:2] f3e | 
[V:3] z4 | 
[V:4] F,2D,F,- | 
[V:1] A2B2 | 
[V:2] cd2c/B/ | 
[V:3] z4 | 
[V:4] F,/E,/D,/C,/B,,2 | 
[V:1] c2c/B/A/G/ | 
[V:2] A2cd- | 
[V:3] z4 | 
[V:4] F,2E,F, | 
[V:1] FG2^F | 
[V:2] dBA2 | 
[V:3] z4 | 
[V:4] D,G,D,2 | 
[V:1] G2z2 | 
[V:2] G4 | 
[V:3] z4 | 
[V:4] z4 | 
[V:1] A3A | 
[V:2] z2d2- | 
[V:3] z4 | 
[V:4] D,3D, | 
[V:1] B2G2 | 
[V:2] dd_e2 | 
[V:3] z4 | 
[V:4] B,,2C,2 | 
[V:1] GGGG | 
[V:2] c2cc | 
[V:3] z4 | 
[V:4] C,C,_E,E, | 
[V:1] A2F2 | 
[V:2] ccd2 | 
[V:3] z4 | 
[V:4] F,2D,2 | 
[V:1] zFGG | 
[V:2] B2B2 | 
[V:3] z4 | 
[V:4] zD,_E,E, | 
[V:1] _EEF2 | 
[V:2] ccAA | 
[V:3] z4 | 
[V:4] C,C,D,2 | 
[V:1] DG2F- | 
[V:2] B2GA | 
[V:3] z4 | 
[V:4] B,,_E,2D,- | 
[V:1] F_E/D/C2 | 
[V:2] FB2A | 
[V:3] z4 | 
[V:4] D,B,,F,2 | 
[V:1] B,/C/D/_E/FG- | 
[V:2] B>cd_e- | 
[V:3] z4 | 
[V:4] G,>F,D,C,- | 
[V:1] G/F/B2A | 
[V:2] eBc2 | 
[V:3] z4 | 
[V:4] C,G,F,2 | 
[V:1] B2z2 | 
[V:2] B4 | 
[V:3] z4 | 
[V:4] G,4 | 
[V:1] A2FD- | 
[V:2] zd2B | 
[V:3] z4 | 
[V:4] D,>E,F,G,- | 
[V:1] DG>FE/D/ | 
[V:2] G2c3/B/ | 
[V:3] z4 | 
[V:4] G,/F,/E,/D,/C,2 | 
[V:1] C2F3/_E/ | 
[V:2] A/G/F2B- | 
[V:3] z4 | 
[V:4] F,>_E, D,/C,/B,,- | 
[V:1] D/C/B,CD- | 
[V:2] B/A/G/F/_ED- | 
[V:3] z4 | 
[V:4] B,,_E,C,B,,- | 
[V:1] DC/B,/A,2 | 
[V:2] DG2^F | 
[V:3] z4 | 
[V:4] B,,G,,D,2 | 
[V:1] z4 | 
[V:2] G4 | 
[V:3] z4 | 
[V:4] _E,3D, | 
[V:1] F2FD | 
[V:2] d4 | 
[V:3] z4 | 
[V:4] B,,4 | 
[V:1] F>GAB- | 
[V:2] d2cB | 
[V:3] z4 | 
[V:4] z4 | 
[V:1] BAB2 | 
[V:2] c2B2 | 
[V:3] z4 | 
[V:4] z4 | 
[V:1] z4 | 
[V:2] F2FD | 
[V:3] z4 | 
[V:4] D,4 | 
[V:1] z4 | 
[V:2] F>GAB- | 
[V:3] z4 | 
[V:4] D,2C,B,, | 
[V:1] z4 | 
[V:2] BAB2 | 
[V:3] z4 | 
[V:4] C,2B,,2 | 
[V:1] d3c/B/ | 
[V:2] z4 | 
[V:3] z4 | 
[V:4] z4 | 
[V:1] A2B2 | 
[V:2] d3c | 
[V:3] z4 | 
[V:4] z4 | 
[V:1] c2F2 | 
[V:2] A2B2 | 
[V:3] z4 | 
[V:4] F,2D,2 | 
[V:1] z4 | 
[V:2] c2F2 | 
[V:3] z4 | 
[V:4] C,2D,2 | 
[V:1] B3A/G/ | 
[V:2] z4 | 
[V:3] z4 | 
[V:4] B,,4- | 
[V:1] F2G2 | 
[V:2] B3A/G/ | 
[V:3] z4 | 
[V:4] B,,2_E,2 | 
[V:1] A2D3/E/ | 
[V:2] F2G2 | 
[V:3] z4 | 
[V:4] D,2G,2 | 
[V:1] F/G<AG/F- | 
[V:2] A2D3/E/ | 
[V:3] z4 | 
[V:4] F,3E, | 
[V:1] FE/D/CE- | 
[V:2] F/G/A2G | 
[V:3] z4 | 
[V:4] D,C,/B,,/A,,C,- | 
[V:1] ED2^C | 
[V:2] AFE2 | 
[V:3] z4 | 
[V:4] C,D,A,,2 | 
[V:1] D4 | 
[V:2] D2zD- | 
[V:3] z4 | 
[V:4] B,,2G,,B,,- | 
[V:1] z2D2- | 
[V:2] DEF2 | 
[V:3] z4 | 
[V:4] B,,C,D,2 | 
[V:1] DEF2 | 
[V:2] G2A2 | 
[V:3] z4 | 
[V:4] G,,2D,2 | 
[V:1] G2A2 | 
[V:2] Bc2d- | 
[V:3] z4 | 
[V:4] G,E,F,2 | 
[V:1] Bc2d- | 
[V:2] d_e2d- | 
[V:3] z4 | 
[V:4] G,C,2G,- | 
[V:1] d_edc/B/ | 
[V:2] dcB3/c/ | 
[V:3] z4 | 
[V:4] G,C,G,2 | 
[V:1] A2B2 | 
[V:2] d>dd2 | 
[V:3] z4 | 
[V:4] z2G,2 | 
[V:1] B>ABc- | 
[V:2] zg>f_e/d/ | 
[V:3] z4 | 
[V:4] G,>F, _E,/D,/C, | 
[V:1] c/B/A/G<AG/ | 
[V:2] cf>_ed/c/ | 
[V:3] z4 | 
[V:4] F,>_E, D,/C,/D,- | 
[V:1] F/E/FED- | 
[V:2] d2cB- | 
[V:3] z4 | 
[V:4] D,B,,C,D, | 
[V:1] DC/B,/A,2 | 
[V:2] BA/G/^F2 | 
[V:3] z4 | 
[V:4] B,,C,D,2 | 
[V:1] G,4 ||  
[V:2] G4 ||  
[V:3] z4 ||  
[V:4] G,4 ||  
[V:1] [M:2/2]z4 | 
[V:2] [M:2/2]G4 | 
[V:3] [M:2/2]z4 | 
[V:4] [M:2/2]z4 | 
[V:1] z4 | 
[V:2] B2B2 | 
[V:3] z4 | 
[V:4] G,4 | 
[V:1] z4 | 
[V:2] G2G2 | 
[V:3] z4 | 
[V:4] B,2B,2 | 
[V:1] z4 | 
[V:2] B2B2 | 
[V:3] z4 | 
[V:4] G,2G,2 | 
[V:1] z4 | 
[V:2] _E2d2 | 
[V:3] z4 | 
[V:4] B,2B,2 | 
[V:1] G4 | 
[V:2] _e2zg- | 
[V:3] z4 | 
[V:4] _E,4 | 
[V:1] B2B2 | 
[V:2] gf/_e/d2 | 
[V:3] G4 | 
[V:4] z4 | 
[V:1] G2G2 | 
[V:2] _e3d | 
[V:3] B2B2 | 
[V:4] _E,4 | 
[V:1] B2B2- | 
[V:2] B3G- | 
[V:3] G2G2- | 
[V:4] _E,2E,2 | 
[V:1] B2G2 | 
[V:2] G/A/B_E2 | 
[V:3] G2G2 | 
[V:4] _E,4 | 
[V:1] B3c | 
[V:2] _e4 | 
[V:3] G4 | 
[V:4] _E,2E,2 | 
[V:1] d3c | 
[V:2] f4 | 
[V:3] A4 | 
[V:4] D,4 | 
[V:1] BAG2 | 
[V:2] d4 | 
[V:3] B4- | 
[V:4] G,4- | 
[V:1] B2AG | 
[V:2] z2G2 | 
[V:3] B4 | 
[V:4] G,2_E,2 | 
[V:1] F4 | 
[V:2] A2B3/A/ | 
[V:3] d4- | 
[V:4] D,4 | 
[V:1] A2B2 | 
[V:2] F2zf | 
[V:3] d4 | 
[V:4] z2B,,2 | 
[V:1] A2G2- | 
[V:2] c>d_e2- | 
[V:3] c4 | 
[V:4] F,2_E,2- | 
[V:1] GFF2- | 
[V:2] e2c2- | 
[V:3] B2A2 | 
[V:4] E,2F,2 | 
[V:1] F2E2 | 
[V:2] c4 | 
[V:3] G4 | 
[V:4] C,4 | 
[V:1] F4 | 
[V:2] A>BAd- | 
[V:3] F4- | 
[V:4] D,4 | 
[V:1] z4 | 
[V:2] dc/B/A2 | 
[V:3] F4 | 
[V:4] F,2F,2 | 
[V:1] D2E2 | 
[V:2] zG2A- | 
[V:3] z4 | 
[V:4] G,2C,2 | 
[V:1] FG2E | 
[V:2] ABc2 | 
[V:3] z4 | 
[V:4] F,_E,C,2 | 
[V:1] F2GA- | 
[V:2] AB2c | 
[V:3] z4 | 
[V:4] D,2G,F, | 
[V:1] AG2^F | 
[V:2] dBA2 | 
[V:3] z4 | 
[V:4] D,G,D,2 | 
[V:1] G2z2 | 
[V:2] G2B2- | 
[V:3] z4 | 
[V:4] _E,2D,2 | 
[V:1] D2_E2 | 
[V:2] BAG2- | 
[V:3] z4 | 
[V:4] B,,2C,2 | 
[V:1] CC2B,/A,/ | 
[V:2] G2^F2 | 
[V:3] z4 | 
[V:4] A,,4 | 
[V:1] B,>CD2 | 
[V:2] G2DG- | 
[V:3] G2B2- | 
[V:4] G,,4- | 
[V:1] G,D>CB, | 
[V:2] G/A<Bc/d | 
[V:3] BAG2- | 
[V:4] G,,4 | 
[V:1] C/B,/A,/G,/A,2 | 
[V:2] ef>ed/c/ | 
[V:3] G2^F2 | 
[V:4] z2D,2 | 
[V:1] zG2B- | 
[V:2] B2d2- | 
[V:3] G4- | 
[V:4] G,,2G,,G,- | 
[V:1] B/c/d2c/B/ | 
[V:2] d2B2 | 
[V:3] G4 | 
[V:4] G,/A,/B,2A,/G,/ | 
[V:1] c/B/A/G<^FE/ | 
[V:2] A4 | 
[V:3] A4 | 
[V:4] F,>E,D,2 | 
[V:1] G3F | 
[V:2] G4 | 
[V:3] B4- | 
[V:4] G,,4 | 
[V:1] DG2A- | 
[V:2] z4 | 
[V:3] B2c2- | 
[V:4] G,2E,F,- | 
[V:1] A/B<cB/A/G/ | 
[V:2] z2G2 | 
[V:3] c4 | 
[V:4] F,/_E,/C,E,2 | 
[V:1] F2G2 | 
[V:2] A2G2 | 
[V:3] d2c2 | 
[V:4] D,F,_E,2 | 
[V:1] F2B2 | 
[V:2] A2zG | 
[V:3] d4- | 
[V:4] D,2G,2 | 
[V:1] A2G2 | 
[V:2] A2B2 | 
[V:3] d4- | 
[V:4] F,2G,2 | 
[V:1] A2B2 | 
[V:2] A2z2 | 
[V:3] d4 | 
[V:4] D,2G,2 | 
[V:1] cc2B/A/ | 
[V:2] G2AF | 
[V:3] c4- | 
[V:4] C,2F,2 | 
[V:1] G2F2 | 
[V:2] G2A2 | 
[V:3] c4- | 
[V:4] E,2F,2 | 
[V:1] GGA2 | 
[V:2] G2z2 | 
[V:3] c4 | 
[V:4] C,2F,2 | 
[V:1] B2B3/A/ | 
[V:2] F2G2 | 
[V:3] B4- | 
[V:4] B,,2_E,2 | 
[V:1] F2G2 | 
[V:2] D2G3/A/ | 
[V:3] B4 | 
[V:4] D,2_E,2 | 
[V:1] D2G2 | 
[V:2] B/c/d2c | 
[V:3] B2G2 | 
[V:4] B,,2_E,2 | 
[V:1] F2F2 | 
[V:2] d2d2 | 
[V:3] A4 | 
[V:4] D,4 | 
[V:1] GAGA | 
[V:2] zdBf | 
[V:3] GFGF | 
[V:4] _E,D,E,D, | 
[V:1] GB2A/G/ | 
[V:2] _edB3/c/ | 
[V:3] G4 | 
[V:4] _E,B,,E,2 | 
[V:1] FG2^F | 
[V:2] dcd2 | 
[V:3] AGA2 | 
[V:4] D,_E,D,2 | 
[V:1] G4 | 
[V:2] d2d2 | 
[V:3] G4 | 
[V:4] z2G,,2 | 
[V:1] z2D2 | 
[V:2] G2B2- | 
[V:3] z4 | 
[V:4] C,2B,,2 | 
[V:1] G2F2 | 
[V:2] Bcd_e | 
[V:3] z4 | 
[V:4] G,,2B,,2- | 
[V:1] D2F2- | 
[V:2] f3_e | 
[V:3] z4 | 
[V:4] B,,C,D,_E, | 
[V:1] FGAB | 
[V:2] c3d | 
[V:3] z4 | 
[V:4] F,3_E, | 
[V:1] c2G2 | 
[V:2] _e>d c/B/c- | 
[V:3] z4 | 
[V:4] C,2_E,2 | 
[V:1] ABc2 | 
[V:2] cB2A | 
[V:3] z4 | 
[V:4] F,D,C,2 | 
[V:1] F4 | 
[V:2] B4 | 
[V:3] d4- | 
[V:4] B,,4 | 
[V:1] B2A2 | 
[V:2] z2f2 | 
[V:3] d4- | 
[V:4] B,,>C,D,3/_E,/ | 
[V:1] AB2A/G/ | 
[V:2] fdB3/c/ | 
[V:3] d4- | 
[V:4] F,G,2F,/_E,/ | 
[V:1] F2zD | 
[V:2] d>efe/d/ | 
[V:3] d4 | 
[V:4] D,4 | 
[V:1] EFEA- | 
[V:2] cdcf- | 
[V:3] A4- | 
[V:4] z4 | 
[V:1] AG/F/EF | 
[V:2] fe/d/cd | 
[V:3] A4- | 
[V:4] z4 | 
[V:1] EDE2 | 
[V:2] cd2^c | 
[V:3] A4 | 
[V:4] z4 | 
[V:1] D2G2 | 
[V:2] d2z2 | 
[V:3] z2B2 | 
[V:4] D,2_E,2 | 
[V:1] GGGG | 
[V:2] G2GG | 
[V:3] c4 | 
[V:4] C,2_E,2 | 
[V:1] F>GAB- | 
[V:2] ABAd- | 
[V:3] d3B | 
[V:4] D,>_E,F,B,, | 
[V:1] BA>GF/E/ | 
[V:2] d/e<fe/d/c/ | 
[V:3] c2d2- | 
[V:4] F,2F,2 | 
[V:1] D2G2- | 
[V:2] B4 | 
[V:3] dcB2 | 
[V:4] G,2G,,2 | 
[V:1] G2^F2 | 
[V:2] z2d2 | 
[V:3] A4 | 
[V:4] D,4 | 
[V:1] G4 | 
[V:2] d2d2 | 
[V:3] G4 | 
[V:4] G,,4 | 
[V:1] z4 | 
[V:2] A4 | 
[V:3] z4 | 
[V:4] D,2D,2 | 
[V:1] z4 | 
[V:2] B2c2 | 
[V:3] z4 | 
[V:4] D,2A,,2- | 
[V:1] z4 | 
[V:2] c2d2 | 
[V:3] z4 | 
[V:4] A,,2B,,2 | 
[V:1] z4 | 
[V:2] cc>BA/G/ | 
[V:3] z4 | 
[V:4] C,2C,2 | 
[V:1] z4 | 
[V:2] FB2A/G/ | 
[V:3] z4 | 
[V:4] D,4 | 
[V:1] z4 | 
[V:2] A/G/F/E<DE/ | 
[V:3] z4 | 
[V:4] C,2B,,2 | 
[V:1] z4 | 
[V:2] FG2^F | 
[V:3] z4 | 
[V:4] A,,4 | 
[V:1] d2d2 | 
[V:2] G4 | 
[V:3] z4 | 
[V:4] G,,4 | 
[V:1] d2A2 | 
[V:2] z4 | 
[V:3] d2d2 | 
[V:4] z4 | 
[V:1] B2c2 | 
[V:2] z4 | 
[V:3] d2A2 | 
[V:4] z4 | 
[V:1] c/B/A/G/FG- | 
[V:2] z4 | 
[V:3] A2B2 | 
[V:4] z4 | 
[V:1] G/F/_E/D/E2 | 
[V:2] z4 | 
[V:3] c2c2 | 
[V:4] z4 | 
[V:1] DF>GA- | 
[V:2] z4 | 
[V:3] d4 | 
[V:4] z2D,3/E,/ | 
[V:1] A/B/c/d/BA- | 
[V:2] f2ff- | 
[V:3] c2dc- | 
[V:4] F,2B,,F,- | 
[V:1] AG2^F | 
[V:2] fd3 | 
[V:3] cBA2 | 
[V:4] F,G,D,2 | 
[V:1] G2z2 | 
[V:2] B4 | 
[V:3] G4 | 
[V:4] G,,2G,,2 | 
[V:1] G4 | 
[V:2] B2B2 | 
[V:3] z4 | 
[V:4] G,,2B,,2- | 
[V:1] G2B2- | 
[V:2] d4 | 
[V:3] z2G2- | 
[V:4] B,,2G,,2 | 
[V:1] B2G2- | 
[V:2] d2_e2- | 
[V:3] G2G2 | 
[V:4] G,2_E,2- | 
[V:1] G2F2 | 
[V:2] e2d2 | 
[V:3] B4 | 
[V:4] E,D,B,,2 | 
[V:1] G2B2- | 
[V:2] _e2g2- | 
[V:3] G2G2 | 
[V:4] _E,3D, | 
[V:1] Bcd2- | 
[V:2] gfd2 | 
[V:3] G2B2- | 
[V:4] C,2B,,2- | 
[V:1] dcB2 | 
[V:2] f4 | 
[V:3] Bcd2 | 
[V:4] B,,4 | 
[V:1] A2G2- | 
[V:2] c2_e2- | 
[V:3] c4 | 
[V:4] F,2_E,2- | 
[V:1] GFF2- | 
[V:2] e2c2- | 
[V:3] B2A2 | 
[V:4] E,2F,2 | 
[V:1] F2E2 | 
[V:2] c4 | 
[V:3] G4 | 
[V:4] C,4 | 
[V:1] [M:3/2]F4F2 | 
[V:2] [M:3/2]A4A2 | 
[V:3] [M:3/2]F6 | 
[V:4] [M:3/2]D,6 | 
[V:1] G2D4 | 
[V:2] G2B4 | 
[V:3] z6 | 
[V:4] z6 | 
[V:1] z6 | 
[V:2] G4F2 | 
[V:3] z6 | 
[V:4] G,,2B,,4 | 
[V:1] G2B4 | 
[V:2] G4B2 | 
[V:3] z6 | 
[V:4] G,,4G,2 | 
[V:1] G4F2 | 
[V:2] _e4d2 | 
[V:3] G2B4 | 
[V:4] _E,2>D,2B,,2 | 
[V:1] G2B2c2 | 
[V:2] _e2g2_e2 | 
[V:3] G4A2 | 
[V:4] _E,4C,2 | 
[V:1] d2>c2B2 | 
[V:2] d4g2 | 
[V:3] B2d4 | 
[V:4] B,,2B,2G,2 | 
[V:1] c2A3G | 
[V:2] c2f2B2 | 
[V:3] c4B2 | 
[V:4] A,2F,2G,2 | 
[V:1] G4^F2 | 
[V:2] c2d4 | 
[V:3] G2A4 | 
[V:4] _E,2D,4 | 
[V:1] G6- | 
[V:2] z6 | 
[V:3] G6 | 
[V:4] _E,2>D,2C,B,, | 
[V:1] G2-G2z2 | 
[V:2] G2>A2B2 | 
[V:3] z6 | 
[V:4] C,2_E,2D,2 | 
[V:1] z6 | 
[V:2] c4B2 | 
[V:3] z6 | 
[V:4] C,2>D,2_E,2 | 
[V:1] C2>D2_E2 | 
[V:2] A2>B2c2 | 
[V:3] z6 | 
[V:4] F,4_E,2 | 
[V:1] F2>G2A2 | 
[V:2] d4c2 | 
[V:3] z6 | 
[V:4] D,2>_E,2F,2 | 
[V:1] D2>_E2F2 | 
[V:2] B2>c2d2 | 
[V:3] z6 | 
[V:4] G,2>F,2D,2 | 
[V:1] G2>A2B2 | 
[V:2] _e4d2 | 
[V:3] z6 | 
[V:4] C,4G,2 | 
[V:1] c2>B2AG | 
[V:2] c4_e2 | 
[V:3] z6 | 
[V:4] A,4G,2 | 
[V:1] A2>B2cd | 
[V:2] f4_e2 | 
[V:3] z6 | 
[V:4] F,4C,2 | 
[V:1] B2A3G | 
[V:2] d4c2 | 
[V:3] z6 | 
[V:4] G,2F,4 | 
[V:1] G4^F2 | 
[V:2] B2A4 | 
[V:3] z6 | 
[V:4] G,2D,4 | 
[V:1] G6- | 
[V:2] G6- | 
[V:3] z6 | 
[V:4] G,,6- | 
[V:1] G6 |]  
[V:2] G6 |]  
[V:3] G6 |]  
[V:4] G,,6 |]  


